src/components/00-materials/images-raw/World.svg

<svg width="96" height="96" viewBox="0 0 96 96" fill="none" xmlns="http://www.w3.org/2000/svg">
<path d="M48 81C66.2254 81 81 66.2254 81 48C81 29.7746 66.2254 15 48 15C29.7746 15 15 29.7746 15 48C15 66.2254 29.7746 81 48 81Z" stroke="#00008F" stroke-width="2" stroke-linecap="round" stroke-linejoin="round"/>
<path d="M68.5 22.1401C66.2002 22.7566 64.0083 23.7211 62 25.0001C59 27.0001 58 28.0001 56 28.0001C54 28.0001 48 26.0001 46 31.0001C46 31.2653 45.8946 31.5197 45.7071 31.7072C45.5196 31.8947 45.2652 32.0001 45 32.0001C44 32.0001 41 30.0001 40 33.0001C39 36.0001 42 35.0001 41 36.0001C38.54 38.4601 39 41.0001 43 39.0001C43.648 38.4175 44.4886 38.0952 45.36 38.0952C46.2314 38.0952 47.072 38.4175 47.72 39.0001C50.21 41.0901 51.31 40.0001 52.06 39.6001C52.81 39.2001 55.16 39.0001 55.59 41.0001C56.02 43.0001 55.66 43.5601 53.5 44.7201C52.0239 45.5884 50.286 45.9005 48.6 45.6001C47.4726 45.2191 46.4466 44.5865 45.6 43.7501C44.6 42.9101 41.85 43.2201 40.38 44.0301C38.91 44.8401 36.25 47.5001 35.69 50.1601C35.4304 51.0494 35.495 52.002 35.8723 52.8481C36.2495 53.6942 36.915 54.3789 37.75 54.7801C38.85 55.2501 42.06 55.4401 43.28 55.7201C44.2908 55.929 45.2074 56.4582 45.8937 57.2292C46.58 58.0002 46.9995 58.9719 47.09 60.0001C47.38 62.9101 47.03 65.8101 47.22 67.6301C47.41 69.4501 48.22 71.2801 48.94 71.8101C49.66 72.3401 51.25 73.8801 53.41 70.7501C54.8448 68.6901 56.0109 66.4553 56.88 64.1001C57.41 62.7501 59.69 58.6601 60.31 57.1001C60.93 55.5401 61.31 53.2001 60.66 51.8201C60.3242 51.1021 59.9469 50.4043 59.53 49.7301C60.462 49.8475 61.4038 49.8676 62.34 49.7901C63.34 49.6401 64.06 49.2301 63.91 47.5101C63.76 45.7901 63.59 44.3201 63.59 44.3201C64.7193 45.014 65.715 45.9048 66.53 46.9501C67.2791 48.2766 68.193 49.503 69.25 50.6001C70.31 51.5401 71.47 52.2001 73.59 50.4501C75.71 48.7001 76.81 47.7901 77.19 46.9501C77.57 46.1101 78.88 42.2301 80.38 41.6001M30.37 20.1001C30.37 20.1001 31.37 21.8401 31.74 22.4001C32.11 22.9601 33.07 24.2001 32.92 24.9401C32.77 25.6801 31.15 26.0001 30.86 26.9401C30.7565 27.4076 30.7556 27.892 30.8575 28.3599C30.9593 28.8277 31.1615 29.2679 31.45 29.6501C32.0593 30.6358 32.4038 31.7622 32.45 32.9201C32.45 34.0701 32.25 35.9201 31.45 36.8201C30.6314 37.5868 29.8663 38.4088 29.16 39.2801C28.75 39.9301 27.45 39.9601 26.04 38.8401C24.63 37.7201 24.04 36.7801 22.88 38.6001C21.72 40.4201 21.15 40.4601 21.09 43.2301C21.03 46.0001 21.29 47.8801 23.03 49.6801C24.77 51.4801 26.13 52.8001 28.03 53.0701C29.93 53.3401 31.36 52.9201 32.09 54.8601C32.82 56.8001 33.27 58.0101 32.51 60.1101C31.75 62.2101 29.4 64.7701 28.77 66.3501C28.1711 67.9694 28.0056 69.7171 28.29 71.4201C28.56 72.8901 28.88 74.9101 28.88 74.9101M61.74 70.1301C61.3257 69.7091 61.045 69.1751 60.9329 68.5952C60.8208 68.0153 60.8824 67.4152 61.11 66.8701C61.71 65.3501 62.67 63.7801 63.9 63.8701C65.13 63.9601 66.21 64.9501 65.5 66.7701C65.248 67.6573 64.8744 68.5053 64.39 69.2901C63 71.1301 61.74 70.1301 61.74 70.1301ZM37 25.8801C37.1493 25.2851 37.3466 24.7032 37.59 24.1401C37.9403 22.9465 38.6618 21.8957 39.65 21.1401C40.7788 20.6277 42.0112 20.3846 43.25 20.4301C43.5549 20.453 43.8491 20.5519 44.1059 20.7179C44.3627 20.8838 44.5739 21.1114 44.7201 21.3799C44.8662 21.6484 44.9428 21.9493 44.9428 22.255C44.9428 22.5607 44.8662 22.8616 44.72 23.1301C43.89 24.7001 42.72 24.8201 41.92 25.3201C41.12 25.8201 39.86 26.7601 39.15 27.2001C38.44 27.6401 36.25 28.2401 37 25.8801Z" stroke="#00008F" stroke-width="2" stroke-linecap="round" stroke-linejoin="round"/>
</svg>

<svg width="96" height="96" viewBox="0 0 96 96" fill="none" xmlns="http://www.w3.org/2000/svg"><path d="M48 81c18.225 0 33-14.775 33-33S66.225 15 48 15 15 29.775 15 48s14.775 33 33 33z" stroke="#00008F" stroke-width="2" stroke-linecap="round" stroke-linejoin="round"/><path d="M68.5 22.14A23.36 23.36 0 0062 25c-3 2-4 3-6 3s-8-2-10 3a1 1 0 01-1 1c-1 0-4-2-5 1s2 2 1 3c-2.46 2.46-2 5 2 3a3.53 3.53 0 014.72 0c2.49 2.09 3.59 1 4.34.6s3.1-.6 3.53 1.4c.43 2 .07 2.56-2.09 3.72a7.18 7.18 0 01-4.9.88 7.84 7.84 0 01-3-1.85c-1-.84-3.75-.53-5.22.28-1.47.81-4.13 3.47-4.69 6.13a3.91 3.91 0 002.06 4.62c1.1.47 4.31.66 5.53.94A4.8 4.8 0 0147.09 60c.29 2.91-.06 5.81.13 7.63.19 1.82 1 3.65 1.72 4.18.72.53 2.31 2.07 4.47-1.06a29.511 29.511 0 003.47-6.65c.53-1.35 2.81-5.44 3.43-7 .62-1.56 1-3.9.35-5.28a20.432 20.432 0 00-1.13-2.09c.932.117 1.874.138 2.81.06 1-.15 1.72-.56 1.57-2.28-.15-1.72-.32-3.19-.32-3.19a11.09 11.09 0 012.94 2.63 18.06 18.06 0 002.72 3.65c1.06.94 2.22 1.6 4.34-.15 2.12-1.75 3.22-2.66 3.6-3.5.38-.84 1.69-4.72 3.19-5.35M30.37 20.1s1 1.74 1.37 2.3c.37.56 1.33 1.8 1.18 2.54-.15.74-1.77 1.06-2.06 2a3.31 3.31 0 00.59 2.71 6.73 6.73 0 011 3.27c0 1.15-.2 3-1 3.9a24.563 24.563 0 00-2.29 2.46c-.41.65-1.71.68-3.12-.44-1.41-1.12-2-2.06-3.16-.24-1.16 1.82-1.73 1.86-1.79 4.63-.06 2.77.2 4.65 1.94 6.45 1.74 1.8 3.1 3.12 5 3.39s3.33-.15 4.06 1.79c.73 1.94 1.18 3.15.42 5.25s-3.11 4.66-3.74 6.24a9.91 9.91 0 00-.48 5.07c.27 1.47.59 3.49.59 3.49m32.86-4.78a3 3 0 01-.63-3.26c.6-1.52 1.56-3.09 2.79-3 1.23.09 2.31 1.08 1.6 2.9a10 10 0 01-1.11 2.52c-1.39 1.84-2.65.84-2.65.84zM37 25.88c.15-.595.347-1.177.59-1.74a5.85 5.85 0 012.06-3 8 8 0 013.6-.71 1.829 1.829 0 011.47 2.7c-.83 1.57-2 1.69-2.8 2.19-.8.5-2.06 1.44-2.77 1.88-.71.44-2.9 1.04-2.15-1.32z" stroke="#00008F" stroke-width="2" stroke-linecap="round" stroke-linejoin="round"/></svg>
